assets/images/icon-quote.svg

<?xml version="1.0" encoding="UTF-8"?>
<svg width="63px" height="63px" viewBox="0 0 63 63" version="1.1" xmlns="http://www.w3.org/2000/svg" xmlns:xlink="http://www.w3.org/1999/xlink">
    <!-- Generator: Sketch 45.2 (43514) - http://www.bohemiancoding.com/sketch -->
    <title>testimondial-quote</title>
    <desc>Created with Sketch.</desc>
    <defs></defs>
    <g id="Page-1" stroke="none" stroke-width="1" fill="none" fill-rule="evenodd">
        <g id="Main-V3" transform="translate(-630.000000, -3676.000000)">
            <g id="Quote" transform="translate(-44.000000, 3519.000000)">
                <g id="Group-5" transform="translate(674.000000, 96.000000)">
                    <g id="testimondial-quote" transform="translate(0.000000, 61.000000)">
                        <circle id="Oval" fill="#4ABFB6" cx="31.5" cy="31.5" r="31.5"></circle>
                        <path d="M45.6795459,23.4638746 C41.4614553,25.5355154 39.3524417,27.9696569 39.3524417,30.766372 C41.1503164,30.9735361 42.6369981,31.7072312 43.8125315,32.9674794 C44.988065,34.2277276 45.5758229,35.6864861 45.5758229,37.3437988 C45.5758229,39.1046935 45.005352,40.5893472 43.8643931,41.7978043 C42.7234341,43.0062615 41.2886134,43.610481 39.5598877,43.610481 C37.623715,43.610481 35.9468763,42.8249956 34.5293213,41.2540013 C33.1117662,39.683007 32.4029994,37.7753997 32.4029994,35.5311221 C32.4029994,28.7982894 36.1715647,23.532948 43.7088085,19.7349398 L45.6795459,23.4638746 Z M28.9753417,23.4638746 C24.7226766,25.5355154 22.596376,27.9696569 22.596376,30.766372 C24.4288252,30.9735361 25.9327939,31.7072312 27.1083274,32.9674794 C28.2838608,34.2277276 28.8716187,35.6864861 28.8716187,37.3437988 C28.8716187,39.1046935 28.2925043,40.5893472 27.1342581,41.7978043 C25.9760119,43.0062615 24.5325477,43.610481 22.803822,43.610481 C20.8676493,43.610481 19.1994541,42.8249956 17.7991863,41.2540013 C16.3989186,39.683007 15.6987952,37.7753997 15.6987952,35.5311221 C15.6987952,28.7982894 19.4500735,23.532948 26.9527428,19.7349398 L28.9753417,23.4638746 Z" id="“”" fill="#FFFFFF"></path>
                    </g>
                </g>
            </g>
        </g>
    </g>
</svg>

<svg width="63" height="63" viewBox="0 0 63 63" xmlns="http://www.w3.org/2000/svg"><title>testimondial-quote</title><g fill="none" fill-rule="evenodd"><circle fill="#4ABFB6" cx="31.5" cy="31.5" r="31.5"/><path d="M45.68 23.464c-4.219 2.072-6.328 4.506-6.328 7.302 1.798.208 3.285.941 4.46 2.201 1.176 1.26 1.764 2.72 1.764 4.377 0 1.76-.57 3.245-1.712 4.454-1.14 1.208-2.575 1.812-4.304 1.812-1.936 0-3.613-.785-5.03-2.356-1.418-1.571-2.127-3.479-2.127-5.723 0-6.733 3.769-11.998 11.306-15.796l1.97 3.729zm-16.705 0c-4.252 2.072-6.379 4.506-6.379 7.302 1.833.208 3.337.941 4.512 2.201 1.176 1.26 1.764 2.72 1.764 4.377 0 1.76-.58 3.245-1.738 4.454-1.158 1.208-2.601 1.812-4.33 1.812-1.936 0-3.605-.785-5.005-2.356-1.4-1.571-2.1-3.479-2.1-5.723 0-6.733 3.751-11.998 11.254-15.796l2.022 3.729z" fill="#FFF"/></g></svg>
